X:3272
T:Killavil Fancy, aka the Farewell Reel
O:england
M:2/2
L:1/8
S:Can't remember
R:Reel
N:Usually played as a single reel (which is how I've transcribed it
N:here), though Mick Moloney says it's also played double.
K:G
DGBG A2BA|GE~E2 cEGE|DEGB AGBA|GEED EG~G2|
B3G ABBA|GE~E2 cEGE|DEGB A2BA|GEED G4||
G2 3)Bcd egge|dB~B2 dBAB|G2 3)Bcd egge|dBAG EGDE|
G2 3)Bcd egge|dB~B2 dega|b2ag egfa|gedB AGGA||


